packages/dnb-eufemia/assets/icons/location.svg

<svg width="16" height="16" viewBox="0 0 16 16" fill="none" xmlns="http://www.w3.org/2000/svg">
<path d="M6.71429 14.25C6.30007 14.25 5.96429 14.5858 5.96429 15C5.96429 15.4142 6.30007 15.75 6.71429 15.75V14.25ZM9.28571 15.75C9.69993 15.75 10.0357 15.4142 10.0357 15C10.0357 14.5858 9.69993 14.25 9.28571 14.25V15.75ZM12.1179 7.22598L12.7761 7.58539L12.791 7.55819L12.8035 7.52986L12.1179 7.22598ZM9.23069 12.514L9.87818 12.8925L9.88371 12.8831L9.88896 12.8734L9.23069 12.514ZM6.76517 12.5069L6.10682 12.8662L6.11223 12.8761L6.11793 12.8859L6.76517 12.5069ZM3.87172 7.20484L3.18557 7.50765L3.19829 7.53646L3.21337 7.56411L3.87172 7.20484ZM6.71429 15.75H9.28571V14.25H6.71429V15.75ZM8.69643 5.5C8.69643 5.88459 8.38459 6.19643 8 6.19643V7.69643C9.21301 7.69643 10.1964 6.71301 10.1964 5.5H8.69643ZM8 6.19643C7.61541 6.19643 7.30357 5.88459 7.30357 5.5H5.80357C5.80357 6.71301 6.78699 7.69643 8 7.69643V6.19643ZM7.30357 5.5C7.30357 5.11541 7.61541 4.80357 8 4.80357V3.30357C6.78699 3.30357 5.80357 4.28699 5.80357 5.5H7.30357ZM8 4.80357C8.38459 4.80357 8.69643 5.11541 8.69643 5.5H10.1964C10.1964 4.28699 9.21301 3.30357 8 3.30357V4.80357ZM11.75 5.4371C11.75 5.94632 11.6451 6.44171 11.4322 6.9221L12.8035 7.52986C13.0998 6.86133 13.25 6.15919 13.25 5.4371H11.75ZM11.4596 6.86658L8.57241 12.1546L9.88896 12.8734L12.7761 7.58539L11.4596 6.86658ZM8.58319 12.1356C8.46733 12.3338 8.24864 12.4643 8 12.4643V13.9643C8.77958 13.9643 9.49229 13.5527 9.87818 12.8925L8.58319 12.1356ZM8 12.4643C7.75431 12.4643 7.53421 12.3361 7.41242 12.128L6.11793 12.8859C6.50711 13.5506 7.21824 13.9643 8 13.9643V12.4643ZM7.42352 12.1477L4.53007 6.84557L3.21337 7.56411L6.10682 12.8662L7.42352 12.1477ZM4.55788 6.90203C4.35578 6.44409 4.25 5.94845 4.25 5.4371H2.75C2.75 6.15728 2.89938 6.85916 3.18557 7.50765L4.55788 6.90203ZM4.25 5.4371C4.25 3.4116 5.91792 1.75 8 1.75V0.25C5.10893 0.25 2.75 2.56387 2.75 5.4371H4.25ZM8 1.75C10.0821 1.75 11.75 3.4116 11.75 5.4371H13.25C13.25 2.56387 10.8911 0.25 8 0.25V1.75Z" fill="black"/>
</svg>

<svg width="16" height="16" viewBox="0 0 16 16" fill="none" xmlns="http://www.w3.org/2000/svg"><path d="M6.714 14.25a.75.75 0 0 0 0 1.5v-1.5Zm2.572 1.5a.75.75 0 0 0 0-1.5v1.5Zm2.832-8.524.658.36.015-.028.012-.028-.685-.304ZM9.23 12.514l.647.379.006-.01.005-.01-.658-.359Zm-2.466-.007-.658.36.005.01.006.009.647-.38ZM3.872 7.205l-.686.303.012.028.015.028.659-.36Zm2.842 8.545h2.572v-1.5H6.714v1.5ZM8.696 5.5A.696.696 0 0 1 8 6.196v1.5A2.196 2.196 0 0 0 10.196 5.5h-1.5ZM8 6.196a.696.696 0 0 1-.696-.696h-1.5c0 1.213.983 2.196 2.196 2.196v-1.5ZM7.304 5.5c0-.385.311-.696.696-.696v-1.5A2.196 2.196 0 0 0 5.804 5.5h1.5ZM8 4.804c.385 0 .696.311.696.696h1.5A2.196 2.196 0 0 0 8 3.304v1.5Zm3.75.633c0 .51-.105 1.005-.318 1.485l1.371.608c.297-.669.447-1.37.447-2.093h-1.5Zm-.29 1.43-2.888 5.288 1.317.718 2.887-5.288-1.316-.718Zm-2.877 5.269a.672.672 0 0 1-.583.328v1.5a2.17 2.17 0 0 0 1.878-1.072l-1.295-.756ZM8 12.464a.676.676 0 0 1-.588-.336l-1.294.758c.39.665 1.1 1.078 1.882 1.078v-1.5Zm-.576-.316L4.53 6.846l-1.317.718 2.894 5.302 1.317-.718ZM4.558 6.902a3.617 3.617 0 0 1-.308-1.465h-1.5c0 .72.15 1.422.436 2.07l1.372-.605ZM4.25 5.437C4.25 3.412 5.918 1.75 8 1.75V.25c-2.891 0-5.25 2.314-5.25 5.187h1.5ZM8 1.75c2.082 0 3.75 1.662 3.75 3.687h1.5C13.25 2.564 10.891.25 8 .25v1.5Z" fill="#000"/></svg>
